static/icons/chrome.svg

<svg xmlns="http://www.w3.org/2000/svg" width="24" height="24" viewBox="0 0 24 24">
  <path fill-rule="evenodd" d="M11.9721432,4.00016734 C13.3380311,3.99123996 14.7307012,4.33940747 15.998388,5.07145198 C17.3999854,5.88384283 18.4623427,7.05332857 19.140823,8.39243437 L12.5167129,8.04426687 C10.6419648,7.9371384 8.85649038,8.9905683 8.24050171,10.758188 L5.77654703,6.97298222 C7.31205502,5.06252461 9.61531701,4.00909471 11.9721432,4.00016734 Z M5.30339632,7.61575301 L8.31192069,13.5346007 C9.16002103,15.2040192 10.9544228,16.2217396 12.8113162,15.8735721 L10.7580206,19.8998169 C6.92817803,19.3106104 4,15.9985553 4,11.9990927 C4,10.3832383 4.48207809,8.87451246 5.30339632,7.61575301 Z M19.4622084,9.12447888 C20.8638058,12.7311372 19.4622084,16.927002 15.998388,18.9267334 C14.5967906,19.7391242 13.0523552,20.069437 11.5525567,19.9890906 L15.1681424,14.4273379 C16.1947902,12.847193 16.1769354,10.7849701 14.9538855,9.35659055 L19.4622084,9.12447888 Z M11.9989253,9.30302632 C13.4897965,9.30302632 14.6949917,10.5082215 14.6949917,11.9990927 C14.6949917,13.4899638 13.4897965,14.695159 11.9989253,14.695159 C10.5080542,14.695159 9.30285899,13.4899638 9.30285899,11.9990927 C9.30285899,10.5082215 10.5080542,9.30302632 11.9989253,9.30302632 Z"/>
</svg>

<svg xmlns="http://www.w3.org/2000/svg" width="24" height="24">
    <path fill-rule="evenodd" d="M11.972 4a7.942 7.942 0 0 1 4.026 1.071 8.017 8.017 0 0 1 3.143 3.321l-6.624-.348c-1.875-.107-3.66.947-4.276 2.714L5.777 6.973A7.993 7.993 0 0 1 11.972 4zM5.303 7.616l3.009 5.919c.848 1.669 2.642 2.687 4.5 2.339L10.757 19.9A7.989 7.989 0 0 1 4 12c0-1.617.482-3.125 1.303-4.384zm14.16 1.508a7.993 7.993 0 0 1-3.465 9.803 7.98 7.98 0 0 1-4.445 1.062l3.615-5.562c1.027-1.58 1.009-3.642-.214-5.07l4.508-.233zm-7.464.179a2.694 2.694 0 0 1 2.696 2.696 2.694 2.694 0 0 1-2.696 2.696A2.694 2.694 0 0 1 9.303 12a2.694 2.694 0 0 1 2.696-2.696z"/>
</svg>
